Flat Remix Dark/apps/scalable/goa-panel.svg

<svg xmlns="http://www.w3.org/2000/svg" width="384pt" height="384pt" version="1.1" viewBox="0 0 384 384">
 <g>
  <path style="fill-rule:evenodd;fill:rgb(29.019608%,68.235294%,90.980392%);fill-opacity:0.529412;stroke-width:18.879494;stroke-linejoin:round;stroke:rgb(29.019608%,68.235294%,90.980392%)" d="M 202.088542 130.270833 C 148.885417 130.276042 105.755208 166.875 105.755208 212.026042 C 105.791667 218.473958 106.723958 224.895833 108.536458 231.15625 C 107.625 231.09375 106.708333 231.046875 105.791667 231.015625 C 64.177083 231.015625 30.4375 264.755208 30.4375 306.369792 C 30.4375 347.989583 64.177083 381.729167 105.791667 381.729167 L 406.208333 381.729167 C 447.822917 381.729167 481.5625 347.989583 481.5625 306.369792 C 481.5625 264.755208 447.822917 231.015625 406.208333 231.015625 C 404.427083 231.015625 402.651042 231.083333 400.875 231.208333 C 403.276042 224.234375 404.510417 216.911458 404.53125 209.536458 C 404.53125 172.401042 374.427083 142.291667 337.286458 142.286458 C 316.302083 142.322917 296.53125 152.151042 283.838542 168.864583 C 266.270833 144.885417 235.364583 130.291667 202.088542 130.270833 Z M 202.088542 130.270833" transform="matrix(0.75,0,0,0.75,0,0)"/>
 </g>
</svg>

<svg xmlns="http://www.w3.org/2000/svg" width="512" height="512" version="1.1" viewBox="0 0 512 512">
 <path style="fill:#4aaee8;fill-opacity:0.52941179;fill-rule:evenodd;stroke:#4aaee8;stroke-width:18.87949371;stroke-linejoin:round" d="m 202.08901,130.27327 c -53.20422,7.4e-4 -96.33445,36.60285 -96.33496,81.75388 0.036,6.44728 0.97062,12.86831 2.78429,19.12925 -0.91381,-0.0629 -1.8287,-0.10897 -2.7442,-0.13845 -41.617086,-2e-5 -75.354407,33.7373 -75.354393,75.35438 -2.4e-5,41.6171 33.7373,75.35442 75.354393,75.3544 l 300.41173,0 c 41.61708,2e-5 75.3544,-33.73732 75.35438,-75.3544 2e-5,-41.61708 -33.7373,-75.3544 -75.35438,-75.35438 -1.77891,2e-4 -3.55725,0.0634 -5.33169,0.1895 2.3996,-6.97362 3.63574,-14.29447 3.65892,-21.66935 7.1e-4,-37.13966 -30.10603,-67.24803 -67.24569,-67.24935 -20.98736,0.0338 -40.75559,9.86397 -53.44816,26.5783 -17.56718,-23.98284 -48.47477,-38.57412 -81.75024,-38.59378 z"/>
</svg>
